src/icons/upload.svg

<?xml version="1.0" encoding="UTF-8"?>
<svg width="512px" height="512px" viewBox="0 0 512 512" version="1.1" xmlns="http://www.w3.org/2000/svg" xmlns:xlink="http://www.w3.org/1999/xlink">
    <!-- Generator: Sketch 62 (91390) - https://sketch.com -->
    <title>upload</title>
    <desc>Created with Sketch.</desc>
    <g id="upload" stroke="none" stroke-width="1" fill="none" fill-rule="evenodd">
        <path d="M376.5,230.15 C376.5,229.05 376.6,228.15 376.6,227.05 C376.6,171.95 332.7,127.35 278.5,127.35 C239.4,127.35 205.8,150.65 190.1,184.25 C183.2,180.85 175.5,178.75 167.4,178.75 C142.4,178.75 121.6,197.25 117.5,221.65 C87.5,231.85 66,260.55 66,294.45 C66,337.05 100,371.65 141.9,371.65 L228.8,371.65 L228.8,303.85 L188,303.85 L256,232.85 L324,303.75 L283.2,303.75 L283.2,371.45 L376.7,371.45 C415,371.45 446,339.65 446,300.65 C446,261.65 414.8,230.15 376.5,230.15 Z" id="Path" fill="#000000" fill-rule="nonzero"></path>
    </g>
</svg>

<svg xmlns="http://www.w3.org/2000/svg" width="512" height="512" viewBox="0 0 512 512">
    <path d="M376.5 230.15c0-1.1.1-2 .1-3.1 0-55.1-43.9-99.7-98.1-99.7-39.1 0-72.7 23.3-88.4 56.9-6.9-3.4-14.6-5.5-22.7-5.5-25 0-45.8 18.5-49.9 42.9-30 10.2-51.5 38.9-51.5 72.8 0 42.6 34 77.2 75.9 77.2h86.9v-67.8H188l68-71 68 70.9h-40.8v67.7h93.5c38.3 0 69.3-31.8 69.3-70.8s-31.2-70.5-69.5-70.5z"/>
</svg>
